X:105
T: Der schwatzhafte Junggeselle
N: Q1139T
O: Osteuropa, Ungarn
N: Melodievergleich zu Q0139 ff., anderes Lied.
R: Legenden - Lied, geistlich
M: 3/4
L: 1/8
K: G
D2 | G2F2E2 | D4G2 | A3BAF | G4
D2 | G2F2E2 | D4G2 | A3BAF | G4
BB | B2B2B2 | B2A2d2 | c4B2 | A4
G2 | F2A2A2 | A2G2A2 | B4AF | G4

@@@ Tune index: 1603
